www/assets/icons/schema.svg

<svg xmlns="http://www.w3.org/2000/svg" width="24" height="24" viewBox="0 0 24 24" fill='currentColor'><path d="M13.5 9v2h-3V9H8V7h2.5V1h-7v6H6v2H3.5v6H6v2H3.5v6h7v-6H8v-2h2.5v-2h3v2h7V9z"/></svg>

<svg width="24" height="24" viewBox="0 0 24 24" xmlns="http://www.w3.org/2000/svg" fill='currentColor'><path d="M13.5 9V11H10.5V9H8V7H10.5V1H3.5V7H6V9H3.5V15H6V17H3.5V23H10.5V17H8V15H10.5V13H13.5V15H20.5V9H13.5Z"/></svg>
